!!!!SEGMENT: pl-gd--ee-1638--002-036_marenzio-luca--motettorum-pro-festis-totius-anni-in-festo-evangelistarum-tradent-enim-vos.krn
!!!cenid: 15xx:1039
!!!COM: Marenzio, Luca
!!!COM-rismID: pe30003955
!!!CDT: ~1553-1599/08/22
!!!CNT: Italian
!!!GTL: Motettorum pro festis totius anni
!!!OTL: In festo Evangelistarum/Tradent enim vos
!!!OMV: 036
!!!PDT: 1588
!!!AGN:
!!!SMS-siglum: PL-GD
!!!SMS-shelfmark: Ee 1638
!!!SMS-variant:
!!!SMS-altvar:
!!!SMS-shelfwork: 002-036 G
!!!NIFC-rismSourceID: 1001202747
!!!NIFC-rismChildID: 990039238
!!!NIFC-islandoraID: pl-gd:57883
!!!URL-pdf-islandora: https://repozytorium.nifc.pl/islandora/object/pl-gd%3A57883/datastream/PDF/view
!!!URL-scan: https://polish.musicsources.pl/pl/lokalizacje/galeria/klocki-introligatorskie/655 @EN{Scan on Polish Music Sources Website} @PL{Skany w portalu Dziedzictwo Muzyki Polskiej w otwartym dostępie}
!!!ONB-nifc: UWAGA: Cantus: s. 634 (lewa), Altus: s. 482 (lewa), Tenor: s. 330 (lewa), Bassus: s. 178 (lewa)
!!!AIN: 1 alto 1 bass 1 soprn 1 tenor
!!!key:
**kern	**text	**kern	**text	**kern	**text	**kern	**text	**mxhm
*part4	*part4	*part3	*part3	*part2	*part2	*part1	*part1	*part1
*staff4	*staff4	*staff3	*staff3	*staff2	*staff2	*staff1	*staff1	*
*I"BASSO	*	*I"TENORE	*	*I"ALTO	*	*I"CANTO	*	*
*I'B	*	*I'T	*	*I'A	*	*I'S	*	*
*Ibass	*	*Itenor	*	*Ialto	*	*Isoprn	*	*
*ICvox	*	*ICvox	*	*ICvox	*	*ICvox	*	*
*clefF4	*	*clefC4	*	*clefC3	*	*clefC1	*	*
*k[b-]	*	*k[b-]	*	*k[b-]	*	*k[b-]	*	*
*F:	*	*F:	*	*F:	*	*F:	*	*
*M2/1	*	*M2/1	*	*M2/1	*	*M2/1	*	*
*met(C|)	*	*met(C|)	*	*met(C|)	*	*met(C|)	*	*
=1-	=1-	=1-	=1-	=1-	=1-	=1-	=1-	=1-
*xywh-#178:1067,574,3426,833	*	*	*	*	*	*	*	*
*	*	*xywh-#330:1031,453,3450,991	*	*	*	*	*	*
*	*	*	*	*xywh-#482:935,470,3511,956	*	*	*	*
*	*	*	*	*	*	*xywh-#634:1002,450,3470,970	*	*
!LO:TX:t=P:problem:podwójny znak przykluczowy	!	!	!	!	!	!	!	!
!LO:TX:a:t=In feſto Euangeliſtarum	!	!	!	!	!	!	!	!
!	!	!LO:TX:a:t=In feſto Euangeliſtarum	!	!	!	!	!	!
!	!	!	!	!LO:TX:a:t=In feſto Euangeliſtarum	!	!	!	!
!	!	!	!	!	!	!LO:TX:a:t=In feſto Euangeliſtarum	!	!
1r	.	1F	TRa-	0r	.	0r	.	.
1F	TRa-	2A/	-de(n)t	.	.	.	.	.
.	.	1c\	e-	.	.	.	.	.
=2-	=2-	=2-	=2-	=2-	=2-	=2-	=2-	=2-
1G	-de(n)t	.	.	1r	.	0r	.	.
.	.	2Bn\	-nim	.	.	.	.	.
1A	e-	1c	vos	1F	TRa-	.	.	.
=3-	=3-	=3-	=3-	=3-	=3-	=3-	=3-	=3-
1F	-nim	1r	.	2A/	-de(n)t	1c	TRa-	.
.	.	.	.	1c	e-	.	.	.
1D	vos	1F	Tra-	.	.	1d	-dent	.
.	.	.	.	2Bn/	-nim	.	.	.
=4-	=4-	=4-	=4-	=4-	=4-	=4-	=4-	=4-
1C	in	1G	-de(n)t	1c	vos	1.e	e-	.
1AA	con-	1A	e-	1c	tra-	.	.	.
.	.	.	.	.	.	2f#X/	-nim	.
=5-	=5-	=5-	=5-	=5-	=5-	=5-	=5-	=5-
2.GG/	-ci-	1B-y	-nim	1d	-de(n)t	1g	vos	.
4GG/	-lys	.	.	.	.	.	.	.
1C	.	1G	vos	1e	e-	2r	.	.
*	*	*	*	*	*	*	*ij	*
.	.	.	.	.	.	2g/	TRa-	.
=6-	=6-	=6-	=6-	=6-	=6-	=6-	=6-	=6-
0r	.	1F	in	2f\	-nim	2a\	-dent	.
.	.	.	.	2c/	tra-	1cc	e-	.
.	.	1D	con-	2d\	-de(n)t	.	.	.
.	.	.	.	1f\	e-	2bn\	-nim	.
=7-	=7-	=7-	=7-	=7-	=7-	=7-	=7-	=7-
2r	.	2.C/	-ci-	.	.	2cc\	vos	.
*	*ij	*	*	*	*	*	*Xij	*
2C/	TRa-	.	.	2e\	-nim	2cc\	in	.
.	.	4C/	-lys	.	.	.	.	.
2D/	-de(n)t-	1F	.	1f	vos	1a	co-	.
1F\	-e-	.	.	.	.	.	.	.
=8-	=8-	=8-	=8-	=8-	=8-	=8-	=8-	=8-
!	!	!LO:SIC:v:t=custos G	!	!	!	!	!	!
.	.	0r	.	1c	is	2.g/	-ci-	.
*	*	*xywh-#330:1016,1122,3473,829	*	*	*	*	*	*
!	!	!LO:LB:g=original	!	!	!	!	!	!
2E\	-nim	.	.	.	.	.	.	.
!	!	!	!	!	!	!LO:SIC:v:t=custos cc	!	!
.	.	.	.	.	.	4g/	-li-	.
*	*	*	*	*	*	*xywh-#634:1018,1118,3454,799	*	*
!	!	!	!	!	!	!LO:LB:g=original	!	!
!LO:SIC:v:t=custos C	!	!	!	!LO:SIC:v:t=custos G	!	!	!	!
1F	vos	.	.	1A	con-	2cc\	-is	.
*	*	*	*	*xywh-#482:1037,1144,3401,877	*	*	*	*
*xywh-#178:1028,1250,3489,715	*	*	*	*	*	*	*	*
!LO:LB:g=original	!	!	!	!LO:LB:g=original	!	!	!	!
.	.	.	.	.	.	2c/	Tra-	.
=9-	=9-	=9-	=9-	=9-	=9-	=9-	=9-	=9-
1C	in	2r	.	2.G/	-ci-	2e/	-de(n)t	.
*	*	*	*ij	*	*	*	*	*
.	.	2G/	Tra-	.	.	1g	e-	.
.	.	.	.	4G/	-lys	.	.	.
1AA	con-	2A/	-de(n)t	1c	.	.	.	.
.	.	1c\	e-	.	.	2f#X/	-nim	.
=10-	=10-	=10-	=10-	=10-	=10-	=10-	=10-	=10-
2.GG/	-ci-	.	.	1d	in	2g/	vos	.
.	.	2Bn\	-nim	.	.	1g	in	.
4GG/	-lys	.	.	.	.	.	.	.
*	*Xij	*	*	*	*	*	*	*
0.C	.	2c\	vos	1G	con-	.	.	.
.	.	2c\	in	.	.	1e/	con-	.
=11-	=11-	=11-	=11-	=11-	=11-	=11-	=11-	=11-
.	.	1A	con-	1.c	-ci-	.	.	.
.	.	.	.	.	.	1fny	-ci-	.
.	.	2.G/	-ci-	.	.	.	.	.
.	.	.	.	2c/	-lys	2e/	-lys	.
.	.	4G/	-lys	.	.	.	.	.
=12-	=12-	=12-	=12-	=12-	=12-	=12-	=12-	=12-
2r	.	1F	.	0c	.	2.f/	.	.
1F	eT	.	.	.	.	.	.	.
.	.	.	.	.	.	4g/	.	.
.	.	2r	.	.	.	0a	.	.
2F\	in	1c\	eT	.	.	.	.	.
=13-	=13-	=13-	=13-	=13-	=13-	=13-	=13-	=13-
2F\	ſi-	.	.	0r	.	.	.	.
2F\	-na-	2c\	in	.	.	.	.	.
4E\	-go-	2c\	ſi-	.	.	1r	.	.
4D/	.	.	.	.	.	.	.	.
4E\	.	2c\	-na-	.	.	.	.	.
4C/	.	.	.	.	.	.	.	.
=14-	=14-	=14-	=14-	=14-	=14-	=14-	=14-	=14-
4D/	.	4B-y\	-go-	2r	.	1r	.	.
4C/	.	4A\	.	.	.	.	.	.
4D/	.	4B-\	.	1f	eT	.	.	.
4E\	.	4c\	.	.	.	.	.	.
2F\	.	4A/	.	.	.	2r	.	.
.	.	4G/	.	.	.	.	.	.
2F\	-gis	4A/	.	2f\	ub	1cc\	eT	.
.	.	4B-\	.	.	.	.	.	.
=15-	=15-	=15-	=15-	=15-	=15-	=15-	=15-	=15-
1F	ſu-	2c\	.	2f\	Si-	.	.	.
!	!	!LO:SIC:v:t=custos c	!	!	!	!	!	!
.	.	2c\	-gis	2f\	-na-	2cc\	in	.
*	*	*xywh-#330:1023,1644,3480,829	*	*	*	*	*	*
!	!	!LO:LB:g=original	!	!	!	!	!	!
1C	-is	1c	Su-	4e\	-go-	2cc\	Si-	.
.	.	.	.	4d\	.	.	.	.
.	.	.	.	4e\	.	2cc\	-na-	.
.	.	.	.	4c\	.	.	.	.
=16-	=16-	=16-	=16-	=16-	=16-	=16-	=16-	=16-
1r	.	1G	-is	4d\	.	4b-\	-go-	.
.	.	.	.	4c\	.	4a\	.	.
.	.	.	.	4d\	.	4b-\	.	.
.	.	.	.	4e\	.	4g\	.	.
2r	.	1r	.	2f\	.	4a\	.	.
.	.	.	.	.	.	4g\	.	.
*	*ij	*	*	*	*	*	*	*
!LO:SIC:v:t=custos F	!	!	!	!	!	!	!	!
1F\	eT	.	.	2c/	-gis	4a\	.	.
*xywh-#178:1036,1776,3481,668	*	*	*	*	*	*	*	*
!LO:LB:g=original	!	!	!	!	!	!LO:SIC:v:t=custos cc	!	!
.	.	.	.	.	.	4b-\	.	.
*	*	*	*	*	*	*xywh-#634:971,1692,3493,784	*	*
!	!	!	!	!	!	!LO:LB:g=original	!	!
=17-	=17-	=17-	=17-	=17-	=17-	=17-	=17-	=17-
.	.	2r	.	1A	Su-	2cc\	.	.
2F\	in	1c	eT	.	.	2cc\	-gis	.
!	!	!	!	!LO:SIC:v:t=custos c	!	!	!	!
2F\	Si-	.	.	1A	-is	1cc	Su-	.
*	*	*	*	*xywh-#482:1021,1708,3401,822	*	*	*	*
!	!	!	!	!LO:LB:g=original	!	!	!	!
2F\	-na-	2c\	in	.	.	.	.	.
=18-	=18-	=18-	=18-	=18-	=18-	=18-	=18-	=18-
4E\	-go-	2c\	Si-	0r	.	1g	-is	.
4D/	.	.	.	.	.	.	.	.
4E\	.	2c\	-na-	.	.	.	.	.
4C/	.	.	.	.	.	.	.	.
4D/	.	4B-\	-go-	.	.	1r	.	.
4C/	.	4A\	.	.	.	.	.	.
4D/	.	4B-\	.	.	.	.	.	.
4E\	.	4G/	.	.	.	.	.	.
=19-	=19-	=19-	=19-	=19-	=19-	=19-	=19-	=19-
2F\	.	4A/	.	2r	.	2r	.	.
.	.	4G/	.	.	.	.	.	.
2F\	gis	4A/	.	2.c/	fla-	2.a\	fla-	.
.	.	4B-\	.	.	.	.	.	.
1F	Su-	2c\	.	.	.	.	.	.
.	.	.	.	4B-y/	-gel-	4g/	-gel-	.
.	.	2c\	-gis	2A/	-la-	2f/	-la-	.
=20-	=20-	=20-	=20-	=20-	=20-	=20-	=20-	=20-
2C/	-is	1c	Su-	1G	-bunt	1e	-bunt	.
*	*Xij	*	*	*	*	*	*	*
2.C/	fla-	.	.	.	.	.	.	.
*	*	*	*	*	*	*	*ij	*
.	.	2G/	-is	1c	vos	2.e/	fla-	.
*	*	*	*Xij	*	*	*	*	*
4BB-/	-gel-	.	.	.	.	.	.	.
2AA/	-la-	2.c\	fla-	.	.	.	.	.
.	.	.	.	.	.	4f/	-gel-	.
=21-	=21-	=21-	=21-	=21-	=21-	=21-	=21-	=21-
*	*	*	*	*	*ij	*	*	*
2GG/	-bunt	.	.	2.d\	fla-	2g/	-la-	.
.	.	4B-\	-gel-	.	.	.	.	.
*	*ij	*	*	*	*	*	*	*
2.D/	fla-	1A	-la-	.	.	2f/	-bunt	.
*	*	*	*	*	*	*	*Xij	*
.	.	.	.	4e\	-gel-	.	.	.
.	.	.	.	2f\	-la-	1d	vos	.
4C/	-gel-	.	.	.	.	.	.	.
2BB-/	-la-	2d\	-bunt	2g\	-bunt-	.	.	.
=22-	=22-	=22-	=22-	=22-	=22-	=22-	=22-	=22-
!LO:SIC:v:t=custos F	!	!	!	!	!	!	!	!
2AA/	-bunt	1c	vos	1a	-vos	2r	.	.
*xywh-#178:1059,2358,3458,660	*	*	*	*	*	*	*	*
!LO:LB:g=original	!	!	!	!	!	!	!	!
*	*Xij	*	*	*	*	*	*	*
2.F\	fla-	.	.	.	.	2.a\	fla-	.
.	.	2.A/	fla-	2.f\	fla-	.	.	.
4E\	-gel-	.	.	.	.	4g/	-gel-	.
1D\	-la-	.	.	.	.	1f/	-la-	.
!	!	!LO:SIC:v:t=custos B	!	!	!	!	!	!
.	.	4A/	-gel-	4e\	-gel-	.	.	.
*	*	*xywh-#330:1046,2236,3411,791	*	*	*	*	*	*
!	!	!LO:LB:g=original	!	!	!	!	!	!
=23-	=23-	=23-	=23-	=23-	=23-	=23-	=23-	=23-
.	.	2Bn\	-la-	2d\	-la-	.	.	.
2C/	-bunt	2.c\	-bunt	2g\	-bunt	2e/	-bunt	.
1G	vos	.	.	1g	vos	1d	vos	.
*	*	*	*	*	*Xij	*	*	*
.	.	8B\	.	.	.	.	.	.
.	.	8A\	.	.	.	.	.	.
.	.	2Bn\	.	.	.	.	.	.
=24-	=24-	=24-	=24-	=24-	=24-	=24-	=24-	=24-
1C	et	2c\	vos	1e	eT	1g	eT	.
.	.	2G/	eT	.	.	.	.	.
1.C	an-	1c	an-	1.e	an-	1.g	an-	.
=25-	=25-	=25-	=25-	=25-	=25-	=25-	=25-	=25-
.	.	1c	-te	.	.	.	.	.
!	!	!	!	!	!	!LO:SIC:v:t=custos b	!	!
2AA/	-te	.	.	2f#X\	-te	2a\	-te	.
*	*	*	*	*	*	*xywh-#634:987,2236,3478,791	*	*
!	!	!	!	!	!	!LO:LB:g=original	!	!
0GG	re-	2.d\	re-	2.g\	re-	2.b-\	re-	.
.	.	4c\	.	8f#\	.	4a\	.	.
.	.	.	.	8e\	.	.	.	.
=26-	=26-	=26-	=26-	=26-	=26-	=26-	=26-	=26-
!	!	!	!	!LO:SIC:v:t=custos d	!	!	!	!
.	.	4B-y\	.	1d	.	4g/	.	.
*	*	*	*	*xywh-#482:912,2194,3511,916	*	*	*	*
!	!	!	!	!LO:LB:g=original	!	!	!	!
.	.	4A\	.	.	.	4f/	.	.
.	.	2B-\	.	.	.	1g	.	.
0D	-ges	1A	-ges	0d	-ges	.	.	.
.	.	.	.	.	.	4f#X/	.	.
.	.	.	.	.	.	4e/	.	.
=27-	=27-	=27-	=27-	=27-	=27-	=27-	=27-	=27-
.	.	2r	.	.	.	0f#X	-ges	.
.	.	2A/	eT	.	.	.	.	.
2r	.	2.d\	prae-	1r	.	.	.	.
2D/	eT	.	.	.	.	.	.	.
.	.	4d\	-ſi-	.	.	.	.	.
=28-	=28-	=28-	=28-	=28-	=28-	=28-	=28-	=28-
2.G\	prae-	2Bn\	-des	0r	.	1r	.	.
.	.	2B\	du-	.	.	.	.	.
4G\	-Si-	.	.	.	.	.	.	.
2E\	-des	2.c\	-ce-	.	.	2r	.	.
2E\	du-	.	.	.	.	2e/	eT	.
.	.	4c\	-mi-	.	.	.	.	.
=29-	=29-	=29-	=29-	=29-	=29-	=29-	=29-	=29-
!	!	!LO:SIC:v:t=custos F	!	!	!	!	!	!
2.F\	-ce-	0A	-ui	2r	.	2.a\	prae-	.
*	*	*xywh-#330:1039,2805,3404,745	*	*	*	*	*	*
!	!	!LO:LB:g=original	!	!	!	!	!	!
.	.	.	.	2A/	eT	.	.	.
4F\	-mi-	.	.	.	.	4a\	-ſi-	.
1D	-ui	.	.	2.d\	prae-	2f#X/	-des	.
.	.	.	.	.	.	2f#/	du-	.
.	.	.	.	4d\	-ſi-	.	.	.
=30-	=30-	=30-	=30-	=30-	=30-	=30-	=30-	=30-
2r	.	1r	.	2Bn/	-des	2.g/	-ce-	.
*	*ij	*	*	*	*	*	*	*
2GG/	eT	.	.	2B/	du-	.	.	.
.	.	.	.	.	.	4g/	-mi-	.
2.C/	prae-	2r	.	2.c\	-ce-	1e	-ui	.
*	*	*	*ij	*	*	*	*	*
.	.	2G/	eT	.	.	.	.	.
!LO:SIC:v:t=custos AA	!	!	!	!	!	!	!	!
4C/	-Si-	.	.	4c/	-mi-	.	.	.
*xywh-#178:1075,2861,3450,738	*	*	*	*	*	*	*	*
!LO:LB:g=original	!	!	!	!	!	!	!	!
=31-	=31-	=31-	=31-	=31-	=31-	=31-	=31-	=31-
2AA/	-des	2.c\	prae-	1e	-ui	2r	.	.
*	*	*	*	*	*	*	*ij	*
2AA/	du-	.	.	.	.	2a\	eT	.
.	.	4c\	-fi-	.	.	.	.	.
2.BB-/	-ce-	2F/	-des	2r	.	2.dd\	prae-	.
*	*	*	*	*	*ij	*	*	*
.	.	2B-y\	du-	2d\	et	.	.	.
4BB-/	-mi-	.	.	.	.	4dd\	-ſi-	.
=32-	=32-	=32-	=32-	=32-	=32-	=32-	=32-	=32-
1GG	-ui	2.d\	-ce-	2.g\	prae-	2bn\	-des	.
*	*Xij	*	*	*	*	*	*	*
!	!	!	!	!	!	!LO:SIC:v:t=custos cc	!	!
.	.	.	.	.	.	2b\	du-	.
*	*	*	*	*	*	*xywh-#634:1010,2779,3408,791	*	*
!	!	!	!	!	!	!LO:LB:g=original	!	!
.	.	4d\	-mi-	4fny\	-ſi-	.	.	.
1r	.	1c	-ui	2e\	-des	2.cc\	-ce-	.
*	*	*	*Xij	*	*	*	*	*
.	.	.	.	2e\	du-	.	.	.
.	.	.	.	.	.	4cc\	-mi-	.
=33-	=33-	=33-	=33-	=33-	=33-	=33-	=33-	=33-
2r	.	2r	.	2.f\	-ce-	1a	-ui	.
*	*ij	*	*	*	*	*	*Xij	*
1F	prop-	1A	prop-	.	.	.	.	.
.	.	.	.	4f\	-mi-	.	.	.
.	.	.	.	1c	-ui	1r	.	.
*	*	*	*	*	*Xij	*	*	*
2E\	-ter	2G/	-ter	.	.	.	.	.
=34-	=34-	=34-	=34-	=34-	=34-	=34-	=34-	=34-
1F	me	2.A/	me	2r	.	2r	.	.
*	*Xij	*	*	*	*	*	*	*
.	.	.	.	1f	prop-	1a	prop-	.
.	.	4B-\	.	.	.	.	.	.
1r	.	1c	.	.	.	.	.	.
.	.	.	.	2e\	-ter	2g/	-ter	.
=35-	=35-	=35-	=35-	=35-	=35-	=35-	=35-	=35-
!	!	!	!	!LO:SIC:v:t=custos f	!	!	!	!
2r	.	2r	.	1f	me	2.a\	me	.
*	*	*	*	*xywh-#482:959,2790,3472,815	*	*	*	*
!	!	!	!	!LO:LB:g=original	!	!	!	!
*	*ij	*	*ij	*	*	*	*	*
1F	prop-	1A	prop-	.	.	.	.	.
.	.	.	.	.	.	4b-y\	.	.
.	.	.	.	1r	.	1cc	.	.
2E\	-ter	2G/	-ter	.	.	.	.	.
=36-	=36-	=36-	=36-	=36-	=36-	=36-	=36-	=36-
1F	me	2.A/	me	2r	.	2r	.	.
*	*Xij	*	*Xij	*	*ij	*	*ij	*
.	.	.	.	1f	prop-	1a	prop-	.
.	.	4B-\	.	.	.	.	.	.
1r	.	1c	.	.	.	.	.	.
.	.	.	.	2e\	-ter	2g/	-ter	.
=37-	=37-	=37-	=37-	=37-	=37-	=37-	=37-	=37-
2r	.	2r	.	2.f\	me	1.a	me	.
*	*	*	*	*	*Xij	*	*Xij	*
2F\	in	2c\	in	.	.	.	.	.
.	.	.	.	4e\	.	.	.	.
2F\	teS-	2A/	teS-	1d	.	.	.	.
!	!	!LO:SIC:v:t=custos C	!	!	!	!	!	!
2G\	-ti-	2B-\	-ti-	.	.	4g/	.	.
*	*	*xywh-#330:1031,3366,3434,799	*	*	*	*	*	*
!	!	!LO:LB:g=original	!	!	!	!	!	!
.	.	.	.	.	.	4fny/	.	.
=38-	=38-	=38-	=38-	=38-	=38-	=38-	=38-	=38-
2.A\	-mo-	2.c\	-mo-	0r	.	1e	.	.
4G\	-ni-	4B-\	-ni-	.	.	.	.	.
2A\	-um	2c\	-um	.	.	1r	.	.
2.B-\	il-	2.d\	il-	.	.	.	.	.
=39-	=39-	=39-	=39-	=39-	=39-	=39-	=39-	=39-
.	.	.	.	1d	in	1b-	in	.
!LO:SIC:v:t=custos G	!	!	!	!	!	!	!	!
4A\	.	4c\	.	.	.	.	.	.
*xywh-#178:1067,3466,3481,675	*	*	*	*	*	*	*	*
!LO:LB:g=original	!	!	!	!	!	!	!	!
4G\	.	4B-\	.	.	.	.	.	.
4F\	.	4A\	.	.	.	.	.	.
1G	.	1B-	.	2d\	teS-	2b-\	teS-	.
.	.	.	.	2e\	-ti-	2g/	-ti-	.
=40-	=40-	=40-	=40-	=40-	=40-	=40-	=40-	=40-
1F	-lis	1c	-lis	2.f\	-mo-	2.a\	-mo-	.
.	.	.	.	4g\	-ni-	4b-\	-ni-	.
1r	.	1r	.	2a\	-um	2cc\	-um	.
.	.	.	.	2.f\	il-	2.dd\	il-	.
=41-	=41-	=41-	=41-	=41-	=41-	=41-	=41-	=41-
*	*ij	*	*	*	*	*	*	*
1D	in	2r	.	.	.	.	.	.
!	!	!	!	!	!	!LO:SIC:v:t=custos b	!	!
.	.	.	.	4e\	.	4cc\	.	.
*	*	*	*	*	*	*xywh-#634:963,3354,3478,737	*	*
!	!	!	!	!	!	!LO:LB:g=original	!	!
*	*	*	*ij	*	*	*	*	*
.	.	2F/	in	4d\	.	4b-\	.	.
.	.	.	.	4c\	.	4a\	.	.
2D/	teS-	2F/	teS-	1d	.	1b-	.	C none
2E\	-ti-	2G/	-ti-	.	.	.	.	.
=42-	=42-	=42-	=42-	=42-	=42-	=42-	=42-	=42-
2.F\	-mo-	2.A/	-mo-	1c	-lis	1a	-lis	.
4E\	-ni-	4G/	-ni-	.	.	.	.	.
2F\	-um	2A/	-um	1r	.	1r	.	.
2.G\	il-	2.B-\	il-	.	.	.	.	.
=43-	=43-	=43-	=43-	=43-	=43-	=43-	=43-	=43-
*	*	*	*	*	*ij	*	*ij	*
.	.	.	.	1B-y	in	1g	in	.
4F\	.	4A/	.	.	.	.	.	.
4E-X\	.	4G/	.	.	.	.	.	.
4D/	.	4F/	.	.	.	.	.	.
1E-X	.	1G	.	2B-/	teS-	2g/	teS-	.
.	.	.	.	2c/	-ti-	2g/	-ti-	.
=44-	=44-	=44-	=44-	=44-	=44-	=44-	=44-	=44-
1D	-lis	1A	-lis	2.d\	-mo-	2.f/	-mo-	.
*	*	*	*Xij	*	*	*	*	*
!	!	!	!	!LO:SIC:v:t=custos f	!	!	!	!
.	.	.	.	4e\	-nu-	4g/	-nu-	.
*	*	*	*	*xywh-#482:927,3323,3487,838	*	*	*	*
!	!	!	!	!LO:LB:g=original	!	!	!	!
1r	.	1r	.	2f\	-um	2a\	-um	.
.	.	.	.	2.g\	il-	2.b-\	il-	.
=45-	=45-	=45-	=45-	=45-	=45-	=45-	=45-	=45-
1G	in	0r	.	.	.	.	.	.
.	.	.	.	4f\	.	4cc\	.	.
.	.	.	.	4e\	.	1dd	.	.
.	.	.	.	4d\	.	.	.	.
2G\	teS-	.	.	1e	.	.	.	.
2A\	-ti-	.	.	.	.	2cc#X\	.	.
=46-	=46-	=46-	=46-	=46-	=46-	=46-	=46-	=46-
2.B-\	-mo-	1r	.	0d	-lis	0dd	-lis	.
*	*	*	*	*	*Xij	*	*Xij	*
!LO:SIC:v:t=custos B	!	!	!	!	!	!	!	!
4A\	-ni-	.	.	.	.	.	.	.
*xywh-#178:1051,3985,3489,723	*	*	*	*	*	*	*	*
!LO:LB:g=original	!	!LO:SIC:v:t=custos G	!	!	!	!	!	!
*	*	*	*ij	*	*	*	*	*
2B-\	-um	1G	in	.	.	.	.	.
*	*	*xywh-#330:970,3896,3496,768	*	*	*	*	*	*
!	!	!LO:LB:g=original	!	!	!	!	!	!
2.G\	il-	.	.	.	.	.	.	.
=47-	=47-	=47-	=47-	=47-	=47-	=47-	=47-	=47-
.	.	1.G	teS-	2r	.	1b-	et	.
4F\	.	.	.	.	.	.	.	.
*	*	*	*	*	*ij	*	*	*
4E-X\	.	.	.	2e-X\	in	.	.	.
4D\	.	.	.	.	.	.	.	.
1C	.	.	.	2e-\	teS-	2.ccny\	gen-	.
.	.	2A/	-ti-	2c/	-ti-	.	.	.
.	.	.	.	.	.	4cc\	-ti-	.
=48-	=48-	=48-	=48-	=48-	=48-	=48-	=48-	=48-
0.BB-	-lis	2.B-\	-mo-	2.d\	-mo-	0f	-bus	.
.	.	4A/	-ni-	4c/	-nu-	.	.	.
.	.	2B-\	-um	2d\	-um	.	.	.
.	.	2.d\	il-	2.f\	il-	.	.	.
=49-	=49-	=49-	=49-	=49-	=49-	=49-	=49-	=49-
.	.	.	.	.	.	2r	.	.
.	.	4c\	.	4eny\	.	.	.	.
.	.	4B-\	.	4d\	.	2f/	in	.
.	.	4A/	.	4c\	.	.	.	.
1r	.	1B-	.	1d	.	2f/	teS-	.
!	!	!	!	!	!	!LO:SIC:v:t=custos a	!	!
.	.	.	.	.	.	2g/	-ti-	.
*	*	*	*	*	*	*xywh-#634:971,3850,3478,807	*	*
!	!	!	!	!	!	!LO:LB:g=original	!	!
=50-	=50-	=50-	=50-	=50-	=50-	=50-	=50-	=50-
2r	.	1.A	.	2c/	-lis	2.a\	-mo-	.
2AA/	in	.	.	2c/	in	.	.	.
.	.	.	.	.	.	4a\	-ni-	.
2AA/	TeS-	.	.	2c/	teS-	2e/	-um	.
2BB-/	-ti-	4G/	.	2d\	-ti-	2.g/	il-	.
.	.	4F/	.	.	.	.	.	.
=51-	=51-	=51-	=51-	=51-	=51-	=51-	=51-	=51-
2.C/	-mo-	2E/	-lis	2.e\	-mo-	.	.	.
*	*	*	*Xij	*	*	*	*	*
.	.	.	.	.	.	4e/	.	.
.	.	2.c\	il-	.	.	2g/	.	.
!	!	!	!	!LO:SIC:v:t=custos e	!	!	!	!
4BB-/	-ni-	.	.	4d\	-nu-	.	.	.
*	*	*	*	*xywh-#482:990,3871,3409,869	*	*	*	*
!	!	!	!	!LO:LB:g=original	!	!	!	!
2C/	-um	.	.	2e\	-um	1a	-lis	.
.	.	4B-\	.	.	.	.	.	.
2.D/	il-	4A/	.	2.f\	il-	.	.	.
.	.	4G/	.	.	.	.	.	.
=52-	=52-	=52-	=52-	=52-	=52-	=52-	=52-	=52-
.	.	4F/	.	.	.	0r	.	.
4C/	.	4G/	.	4e\	.	.	.	.
4BB-/	.	1A	.	4d\	.	.	.	.
4AA/	.	.	.	4c\	.	.	.	.
1BB-	.	.	.	1d	.	.	.	.
.	.	2G/	.	.	.	.	.	.
=53-	=53-	=53-	=53-	=53-	=53-	=53-	=53-	=53-
*	*	*	*	*	*	*	*ij	*
2AA/	-lis	2A/	-lis	1c	-lis	1a	in	.
*	*	*	*	*	*Xij	*	*	*
2F\	in	2A/	eT	.	.	.	.	.
2F\	teS-	2.d\	gen-	1r	.	2a\	teS-	.
!LO:SIC:v:t=custos A	!	!	!	!	!	!	!	!
2G\	-ti-	.	.	.	.	2b-\	-ti-	.
*xywh-#178:1083,4503,3458,793	*	*	*	*	*	*	*	*
!LO:LB:g=original	!	!LO:SIC:v:t=custos c	!	!	!	!	!	!
.	.	4d\	-ti-	.	.	.	.	.
*	*	*xywh-#330:1046,4434,3404,806	*	*	*	*	*	*
!	!	!LO:LB:g=original	!	!	!	!	!	!
=54-	=54-	=54-	=54-	=54-	=54-	=54-	=54-	=54-
2.A\	-mo-	2c\	-bus	1r	.	2.cc\	-mo-	.
.	.	2.f\	in	.	.	.	.	.
4G\	-ni-	.	.	.	.	4b-\	-ni-	.
2A\	-um	.	.	1f	eT	2cc\	-um	.
.	.	4e\	.	.	.	.	.	.
2.B-\	il-	4d\	.	.	.	2.dd\	il-	.
.	.	4c\	.	.	.	.	.	.
=55-	=55-	=55-	=55-	=55-	=55-	=55-	=55-	=55-
.	.	1d	.	1.g	gen-	.	.	.
4A\	.	.	.	.	.	4cc\	.	.
4G\	.	.	.	.	.	4b-\	.	.
4F\	.	.	.	.	.	4a\	.	.
1G	.	2d\	teſ-	.	.	1b-	.	.
.	.	2e\	-ti-	2g\	-ti-	.	.	.
=56-	=56-	=56-	=56-	=56-	=56-	=56-	=56-	=56-
0F	-lis	2.f\	-mo-	1c	-bus	1a	lis	.
*	*Xij	*	*	*	*	*	*Xji	*
.	.	4f\	-ni-	.	.	.	.	.
.	.	2c\	-um	2.f\	eT	2.a\	eT	.
.	.	2.d\	il-	.	.	.	.	.
.	.	.	.	4e\	.	4g/	.	.
=57-	=57-	=57-	=57-	=57-	=57-	=57-	=57-	=57-
!	!	!	!	!	!	!LO:SIC:v:t=custos g	!	!
0BB-	eT	.	.	0d	.	2f/	.	.
*	*	*	*	*	*	*xywh-#634:1002,4464,3423,745	*	*
!	!	!	!	!	!	!LO:LB:g=original	!	!
.	.	4c\	.	.	.	.	.	.
.	.	4B-\	.	.	.	2.g/	gen-	.
.	.	4A/	.	.	.	.	.	.
.	.	1B-	.	.	.	.	.	.
.	.	.	.	.	.	4f/	.	.
.	.	.	.	.	.	1f/	.	.
=58-	=58-	=58-	=58-	=58-	=58-	=58-	=58-	=58-
1.C	gen-	2A/	-lis	1.c	gen-	.	.	.
.	.	4G/	.	.	.	4e/	.	.
.	.	4F/	.	.	.	4d/	.	.
.	.	1G	.	.	.	4e/	.	.
.	.	.	.	.	.	4f/	.	.
2C/	-ti-	.	.	2c/	-ti-	4g/	.	.
.	.	.	.	.	.	4e/	.	.
=59-	=59-	=59-	=59-	=59-	=59-	=59-	=59-	=59-
1FF	-bus	1A	eT	2c/	-bus	4f/	.	.
.	.	.	.	.	.	4e/	.	.
*	*	*	*	*	*ij	*	*	*
.	.	.	.	2.f\	eT	4d/	.	.
.	.	.	.	.	.	4c/	.	.
1BB-	eT	2.B-\	gen-	.	.	4d/	.	.
.	.	.	.	4e\	.	4e/	.	.
.	.	.	.	2d\	.	1f/	.	.
.	.	4A/	.	.	.	.	.	.
=60-	=60-	=60-	=60-	=60-	=60-	=60-	=60-	=60-
1.C	gen-	1G	.	1.c	gen-	.	.	.
.	.	.	.	.	.	4e/	.	.
.	.	.	.	.	.	4d/	.	.
.	.	1G	-ti-	.	.	2e/	.	.
2C/	-ti-	.	.	2c/	ti-	2e/	-ti-	.
=61-	=61-	=61-	=61-	=61-	=61-	=61-	=61-	=61-
00FF	-bus.	00F	-bus.	00c	-bus	00f	-bus.	.
*	*	*	*	*	*Xij	*	*	*
=62-	=62-	=62-	=62-	=62-	=62-	=62-	=62-	=62-
.	.	.	.	.	.	.	.	.
=-	=-	=-	=-	=-	=-	=-	=-	=-
*-	*-	*-	*-	*-	*-	*-	*-	*-
!!!system-decoration: [(s1,s2,s3,s4)]
!!!ENC: Filip Voros
!!!END: 2022-07-05
!!!ENC: Julita Ruszuk
!!!END: 2022-07-27
!!!YEC: Copyright 2022 Narodowy Instytut Fryderyka Chopina (https://polishscores.org)
!!!YEM: License CC-BY-4.0 (https://creativecommons.org/licenses/by/4.0)
!!!IIIF: https://repozytorium.nifc.pl/islandora/object/pl-gd%3A57883/datastream/IIIF/view
!!!ENC-iiif: Lidia Bialucha
!!!END-iiif: 2022-09-13
